docs/images/benefits/coins-icon.svg

<svg width="32" height="32" viewBox="0 0 32 32" fill="none" xmlns="http://www.w3.org/2000/svg">
<path fill-rule="evenodd" clip-rule="evenodd" d="M21.871 27.2903C26.369 27.2903 30 25.4839 30 22.7742V5.6129C30 3.80645 26.3871 2 21.871 2C17.3548 2 13.7419 3.80645 13.7419 5.6129V11.9355C15.8555 12.8206 17.6619 14.3019 18.9445 16.1806C19.8297 16.3541 20.8052 16.4498 21.871 16.4498C24.2374 16.4498 26.2065 15.9783 27.6155 15.2106C27.8155 15.1006 28.0102 14.9813 28.199 14.8529V17.3458C28.199 17.7703 27.8612 18.4297 26.7502 19.0366C25.6736 19.6237 24.0225 20.0555 21.8728 20.0555C21.4428 20.0555 21.0334 20.0392 20.6444 20.0067C20.7889 20.6004 20.8853 21.2086 20.9334 21.8312C21.2381 21.8481 21.5512 21.8565 21.8728 21.8565C24.2392 21.8565 26.2083 21.385 27.6173 20.6173C27.8173 20.5073 28.012 20.388 28.2008 20.2596V22.7525C28.2008 23.1788 27.9316 23.8111 26.7719 24.4361C25.6302 25.0503 23.9177 25.4622 21.8764 25.4622C21.4609 25.4622 21.0587 25.4453 20.6697 25.4116C20.5308 26.012 20.3442 26.6004 20.1115 27.1711C20.6799 27.2349 21.2676 27.2668 21.8746 27.2668L21.871 27.2903ZM26.7484 13.6335C27.8594 13.0266 28.1972 12.3672 28.1972 11.9427V9.44981C28.0105 9.57746 27.816 9.69669 27.6137 9.80748C26.2083 10.5752 24.2356 11.0467 21.8692 11.0467C19.5027 11.0467 17.5337 10.5752 16.1247 9.80748C15.9246 9.69754 15.7299 9.57818 15.5412 9.44981V11.9427C15.5412 12.3672 15.879 13.0266 16.9899 13.6317C18.0666 14.2188 19.7177 14.6506 21.8674 14.6506C24.017 14.6506 25.6609 14.2188 26.7448 13.6317L26.7484 13.6335ZM15.5484 6.51613C15.5484 5.99587 15.7742 5.49548 16.1951 5.19019C16.4245 5.024 16.6738 4.85781 16.8707 4.76748C17.3639 4.53987 19.8333 3.80465 21.8746 3.80465C23.9159 3.80465 25.6862 4.21471 26.8785 4.76748C27.1025 4.87045 27.3499 5.03123 27.5685 5.19019C27.9858 5.49187 28.2008 5.98865 28.2008 6.50348V6.51432C28.2008 6.93884 27.863 7.59819 26.752 8.20516C25.6754 8.79226 24.0243 9.224 21.8746 9.224C19.7249 9.224 18.081 8.79045 16.9972 8.20516C15.8862 7.6 15.5484 6.93884 15.5484 6.51613Z" fill="#BC002D"/>
<path fill-rule="evenodd" clip-rule="evenodd" d="M18.2581 21.8707C18.2581 26.3688 14.6271 29.9998 10.129 29.9998C5.63097 29.9998 2 26.3688 2 21.8707C2 17.3727 5.63097 13.7417 10.129 13.7417C14.6271 13.7417 18.2581 17.3727 18.2581 21.8707ZM16.4516 21.8707C16.4516 25.3572 13.6155 28.1933 10.129 28.1933C6.64258 28.1933 3.80645 25.3572 3.80645 21.8707C3.80645 18.3843 6.64258 15.5482 10.129 15.5482C13.6155 15.5482 16.4516 18.3843 16.4516 21.8707Z" fill="#BC002D"/>
</svg>

<svg width="32" height="32" fill="none" xmlns="http://www.w3.org/2000/svg"><path fill-rule="evenodd" clip-rule="evenodd" d="M21.871 27.29c4.498 0 8.129-1.806 8.129-4.516V5.613C30 3.806 26.387 2 21.871 2s-8.13 1.806-8.13 3.613v6.322a11.847 11.847 0 0 1 5.204 4.246c.885.173 1.86.269 2.926.269 2.366 0 4.335-.472 5.745-1.24.2-.11.394-.229.583-.357v2.493c0 .424-.338 1.084-1.449 1.69-1.076.588-2.727 1.02-4.877 1.02-.43 0-.84-.017-1.229-.05.145.594.241 1.203.29 1.825.304.017.617.026.939.026 2.366 0 4.335-.472 5.744-1.24.2-.11.395-.229.584-.357v2.492c0 .427-.27 1.06-1.43 1.684-1.14.614-2.853 1.026-4.895 1.026-.415 0-.817-.017-1.206-.05-.14.6-.326 1.188-.559 1.76.569.063 1.157.095 1.764.095l-.004.023Zm4.877-13.656c1.111-.607 1.45-1.267 1.45-1.691V9.45a6.935 6.935 0 0 1-.584.357c-1.406.768-3.378 1.24-5.745 1.24-2.366 0-4.335-.472-5.744-1.24-.2-.11-.395-.229-.584-.357v2.493c0 .424.338 1.084 1.449 1.689 1.077.587 2.728 1.019 4.877 1.019 2.15 0 3.794-.432 4.878-1.02l.003.002Zm-11.2-7.118c0-.52.226-1.02.647-1.326a4.59 4.59 0 0 1 .676-.423c.493-.227 2.962-.962 5.004-.962 2.04 0 3.811.41 5.003.962.224.103.472.264.69.423.418.302.633.799.633 1.313v.011c0 .425-.338 1.084-1.449 1.691-1.077.587-2.728 1.019-4.877 1.019-2.15 0-3.794-.434-4.878-1.019-1.11-.605-1.449-1.266-1.449-1.689Z" fill="#BC002D"/><path fill-rule="evenodd" clip-rule="evenodd" d="M18.258 21.87A8.118 8.118 0 0 1 10.13 30 8.118 8.118 0 0 1 2 21.87a8.118 8.118 0 0 1 8.129-8.128 8.118 8.118 0 0 1 8.13 8.129Zm-1.806 0a6.33 6.33 0 0 1-6.323 6.323 6.33 6.33 0 0 1-6.323-6.322 6.33 6.33 0 0 1 6.323-6.323 6.33 6.33 0 0 1 6.323 6.323Z" fill="#BC002D"/></svg>
